packages/kaspersky-hexa-ui-icons/src/iconsSVGs/24/DeleteAccount.svg

<svg width="24" height="24" viewBox="0 0 24 24" fill="none" xmlns="http://www.w3.org/2000/svg">
<path fill-rule="evenodd" clip-rule="evenodd" d="M8.00342 6.92777C8.00342 4.73155 9.7838 2.95117 11.98 2.95117C14.1762 2.95117 15.9566 4.73155 15.9566 6.92777C15.9566 9.12398 14.1762 10.9044 11.98 10.9044C9.7838 10.9044 8.00342 9.12398 8.00342 6.92777ZM11.98 4.95117C10.8884 4.95117 10.0034 5.83612 10.0034 6.92777C10.0034 8.01941 10.8884 8.90436 11.98 8.90436C13.0717 8.90436 13.9566 8.01941 13.9566 6.92777C13.9566 5.83612 13.0717 4.95117 11.98 4.95117Z" fill="black"/>
<path fill-rule="evenodd" clip-rule="evenodd" d="M16.8044 12.0078C16.2521 12.0078 15.8044 12.4555 15.8044 13.0078V13.5326H14.9361C14.3838 13.5326 13.9361 13.9803 13.9361 14.5326C13.9361 15.0063 14.2654 15.4031 14.7076 15.5064V19.0533C14.7076 20.1579 15.603 21.0533 16.7076 21.0533H19.2778C20.3824 21.0533 21.2778 20.1579 21.2778 19.0533V15.5064C21.72 15.403 22.0493 15.0063 22.0493 14.5326C22.0493 13.9803 21.6016 13.5326 21.0493 13.5326L20.181 13.5326V13.0078C20.181 12.4555 19.7333 12.0078 19.181 12.0078H16.8044ZM19.2778 15.5326H16.7076V19.0533H19.2778V15.5326Z" fill="black"/>
<path d="M9.15332 12.0078H13.3151C12.6257 12.4513 12.1297 13.1695 11.9818 14.0078H9.15332C7.49647 14.0078 6.15332 15.351 6.15332 17.0078V18.049C6.15332 18.6013 6.60104 19.049 7.15332 19.049H12.7076V19.0533C12.7076 19.7801 12.9014 20.4616 13.2402 21.049H7.15332C5.49647 21.049 4.15332 19.7058 4.15332 18.049V17.0078C4.15332 14.2464 6.3919 12.0078 9.15332 12.0078Z" fill="black"/>
</svg>

<svg xmlns="http://www.w3.org/2000/svg" width="24" height="24" fill="none" viewBox="0 0 24 24"><path fill="#000" fill-rule="evenodd" d="M8.0034 6.9278c0-2.1962 1.7804-3.9766 3.9766-3.9766s3.9766 1.7804 3.9766 3.9766-1.7804 3.9766-3.9766 3.9766S8.0034 9.124 8.0034 6.9278M11.98 4.9512c-1.0916 0-1.9766.885-1.9766 1.9766s.885 1.9766 1.9766 1.9766 1.9766-.885 1.9766-1.9766-.8849-1.9766-1.9766-1.9766m3.8244 8.0566c0-.5523.4477-1 1-1h2.3766c.5523 0 1 .4477 1 1v.5248h.8683c.5523 0 1 .4478 1 1 0 .4737-.3293.8705-.7715.9738v3.5469c0 1.1046-.8954 2-2 2h-2.5702c-1.1046 0-2-.8954-2-2v-3.5469c-.4422-.1033-.7715-.5001-.7715-.9738 0-.5522.4477-1 1-1h.8683zm-6.651-1h4.1617c-.6894.4436-1.1854 1.1618-1.3333 2H9.1533c-1.6568 0-3 1.3432-3 3v1.0412c0 .5523.4477 1 1 1h5.5543v.0043c0 .7268.1938 1.4083.5326 1.9957H7.1533c-1.6568 0-3-1.3432-3-3v-1.0412c0-2.7614 2.2386-5 5-5m7.5542 3.5248h2.5702v3.5207h-2.5702z"/></svg>
